X: 35563
T: Rusty Sheet
R: waltz
M: 3/4
K: Eminor
"D7"|cBA2G2|"Am" cBA2G2|"F#dim" cBA2G2|[I: MIDI = gchord c2z4 ] "D7" F4 B,2|
|:"Em" E3 FGA|(^A2 .B2) B2|"Am" e3 dcB|"D"(3ABA G2 F2|
"Em" E3 FGA|(^A2 .B2) B2|"D" c3 BAG|A3 AGF|
"Em" E3 FGA|(^A2 .B2) B2|"Am" e3 fga|"Em" (^a2b2) (3=agf|
"Em" e3 gfe|(3ded c2 B2|"D" cB A2 G2|1 "Bm" F4 B,B,:|2 "D" A4 (B3/2c//d//)||
|:"Em"e4 (f3/2g//a//|"Bm"b4) bb|"D" c'b a2 gf|"Em" e2 dc (B3/2c//d//|
"Em" e4) (f3/2g//a//|"Bm"b4) bb|"D" ag f2 ed|"Bm"fe d2 (B2|
"C" e4) (f2|"Bm" B4) BB|"D" cB A2 Bc|"Em"BG E2 B,B,|
E3 FGF|E2 G2 (3BAB|"D" cB A2 G2|1 "Bm" F4 (B3/2c//d//:|2 "D" (3ABA G2 F2||
"D" (3ABA G2 F2|"F#dim" (3ABA G2 F2|"Em" E2 G2 B2|e2 g2 b2|e'6-|e'1 z5||

